X: 12026
T: Eric McDonald's
R: reel
M: 4/4
K: Bminor
c|d2cB AFED|FBBA Bcde|cAde cAde|(3eee de cABc|
d2cB AFED|FBBA BAFE|DB,DE CA,DE|F2EF DB,B,:|
A,|B,2DB, FDGA|FDGA FDAD|EA, (3A,A,A, EA,DE|(3A,A,A, ED CA, (3A,A,A,|
B,2DB, FDGA|FAGA FAde|cAde cAde|f2ef dBBA
B,2DB, FDGA|FDGA FDef|dAef dAde|cAde cAFD|
B,2DB, FDGA|FAGA FDAD|EA, (3A,A,A, EA, DE|F2EF DB,B,||

